components/Common/Svg/svgs/titledAwsLambda.svg

<svg width="119" height="137" viewBox="0 0 119 137" fill="none" xmlns="http://www.w3.org/2000/svg">
<path d="M8.748 124.066H3.168L2.106 127H0.342L5.04 114.544H6.894L11.574 127H9.81L8.748 124.066ZM8.28 122.788L5.958 116.38L3.636 122.788H8.28ZM28.838 114.31L25.616 127H23.618L20.684 116.632L17.75 127H15.752L12.512 114.31H14.33L16.76 125.092L19.766 114.31H21.584L24.59 125.056L27.038 114.31H28.838ZM38.7854 123.706C38.7854 124.306 38.6414 124.864 38.3534 125.38C38.0654 125.896 37.6274 126.316 37.0394 126.64C36.4514 126.964 35.7254 127.126 34.8614 127.126C34.0214 127.126 33.2714 126.976 32.6114 126.676C31.9634 126.364 31.4414 125.944 31.0454 125.416C30.6614 124.876 30.4394 124.264 30.3794 123.58H32.1254C32.1614 123.94 32.2814 124.294 32.4854 124.642C32.7014 124.978 33.0014 125.26 33.3854 125.488C33.7814 125.704 34.2554 125.812 34.8074 125.812C35.5274 125.812 36.0794 125.62 36.4634 125.236C36.8474 124.852 37.0394 124.36 37.0394 123.76C37.0394 123.244 36.9014 122.824 36.6254 122.5C36.3614 122.176 36.0314 121.924 35.6354 121.744C35.2394 121.552 34.6994 121.348 34.0154 121.132C33.2114 120.868 32.5634 120.622 32.0714 120.394C31.5914 120.154 31.1774 119.8 30.8294 119.332C30.4934 118.864 30.3254 118.246 30.3254 117.478C30.3254 116.818 30.4814 116.236 30.7934 115.732C31.1174 115.228 31.5734 114.838 32.1614 114.562C32.7614 114.286 33.4634 114.148 34.2674 114.148C35.5154 114.148 36.5054 114.454 37.2374 115.066C37.9694 115.666 38.3954 116.434 38.5154 117.37H36.7514C36.6554 116.866 36.3974 116.422 35.9774 116.038C35.5574 115.654 34.9874 115.462 34.2674 115.462C33.6074 115.462 33.0794 115.636 32.6834 115.984C32.2874 116.32 32.0894 116.8 32.0894 117.424C32.0894 117.916 32.2154 118.318 32.4674 118.63C32.7314 118.93 33.0554 119.17 33.4394 119.35C33.8234 119.518 34.3514 119.71 35.0234 119.926C35.8394 120.19 36.4934 120.442 36.9854 120.682C37.4894 120.922 37.9154 121.288 38.2634 121.78C38.6114 122.26 38.7854 122.902 38.7854 123.706ZM47.0731 125.722H51.5731V127H45.4351V114.31H47.0731V125.722ZM57.2898 116.992C58.2498 116.992 59.0598 117.232 59.7198 117.712C60.3918 118.192 60.8598 118.834 61.1238 119.638V117.118H62.7618V127H61.1238V124.48C60.8598 125.284 60.3918 125.926 59.7198 126.406C59.0598 126.886 58.2498 127.126 57.2898 127.126C56.4138 127.126 55.6338 126.922 54.9498 126.514C54.2658 126.106 53.7258 125.524 53.3298 124.768C52.9458 124 52.7538 123.1 52.7538 122.068C52.7538 121.036 52.9458 120.136 53.3298 119.368C53.7258 118.6 54.2658 118.012 54.9498 117.604C55.6338 117.196 56.4138 116.992 57.2898 116.992ZM57.7578 118.45C56.7498 118.45 55.9398 118.774 55.3278 119.422C54.7278 120.058 54.4278 120.94 54.4278 122.068C54.4278 123.196 54.7278 124.084 55.3278 124.732C55.9398 125.368 56.7498 125.686 57.7578 125.686C58.4058 125.686 58.9818 125.536 59.4858 125.236C60.0018 124.936 60.4038 124.516 60.6918 123.976C60.9798 123.424 61.1238 122.788 61.1238 122.068C61.1238 121.348 60.9798 120.712 60.6918 120.16C60.4038 119.608 60.0018 119.188 59.4858 118.9C58.9818 118.6 58.4058 118.45 57.7578 118.45ZM77.5187 116.956C78.6707 116.956 79.5947 117.328 80.2907 118.072C80.9987 118.804 81.3527 119.866 81.3527 121.258V127H79.7147V121.402C79.7147 120.43 79.4747 119.686 78.9947 119.17C78.5267 118.654 77.8787 118.396 77.0507 118.396C76.1867 118.396 75.4907 118.684 74.9627 119.26C74.4467 119.824 74.1887 120.658 74.1887 121.762V127H72.5507V121.402C72.5507 120.43 72.3107 119.686 71.8307 119.17C71.3507 118.654 70.7027 118.396 69.8867 118.396C69.0107 118.396 68.3087 118.684 67.7807 119.26C67.2647 119.824 67.0067 120.658 67.0067 121.762V127H65.3687V117.118H67.0067V119.368C67.2467 118.588 67.6727 117.994 68.2847 117.586C68.9087 117.166 69.6227 116.956 70.4267 116.956C71.2667 116.956 71.9927 117.172 72.6047 117.604C73.2287 118.024 73.6727 118.648 73.9367 119.476C74.2127 118.672 74.6747 118.054 75.3227 117.622C75.9707 117.178 76.7027 116.956 77.5187 116.956ZM89.35 116.992C90.226 116.992 91.006 117.196 91.69 117.604C92.374 118.012 92.908 118.6 93.292 119.368C93.688 120.136 93.886 121.036 93.886 122.068C93.886 123.1 93.688 124 93.292 124.768C92.908 125.524 92.374 126.106 91.69 126.514C91.006 126.922 90.226 127.126 89.35 127.126C88.39 127.126 87.574 126.886 86.902 126.406C86.242 125.914 85.786 125.272 85.534 124.48V127H83.896V113.68H85.534V119.638C85.786 118.846 86.242 118.21 86.902 117.73C87.574 117.238 88.39 116.992 89.35 116.992ZM88.882 118.45C88.246 118.45 87.67 118.6 87.154 118.9C86.638 119.188 86.236 119.608 85.948 120.16C85.66 120.712 85.516 121.348 85.516 122.068C85.516 122.788 85.66 123.424 85.948 123.976C86.236 124.516 86.638 124.936 87.154 125.236C87.67 125.536 88.246 125.686 88.882 125.686C89.902 125.686 90.712 125.368 91.312 124.732C91.924 124.084 92.23 123.196 92.23 122.068C92.23 120.94 91.924 120.058 91.312 119.422C90.712 118.774 89.902 118.45 88.882 118.45ZM100.075 116.992C101.035 116.992 101.845 117.232 102.505 117.712C103.177 118.192 103.645 118.834 103.909 119.638V113.68H105.547V127H103.909V124.48C103.645 125.284 103.177 125.926 102.505 126.406C101.845 126.886 101.035 127.126 100.075 127.126C99.1989 127.126 98.4189 126.922 97.7349 126.514C97.0509 126.106 96.5109 125.524 96.1149 124.768C95.7309 124 95.5389 123.1 95.5389 122.068C95.5389 121.036 95.7309 120.136 96.1149 119.368C96.5109 118.6 97.0509 118.012 97.7349 117.604C98.4189 117.196 99.1989 116.992 100.075 116.992ZM100.543 118.45C99.5349 118.45 98.7249 118.774 98.1129 119.422C97.5129 120.058 97.2129 120.94 97.2129 122.068C97.2129 123.196 97.5129 124.084 98.1129 124.732C98.7249 125.368 99.5349 125.686 100.543 125.686C101.191 125.686 101.767 125.536 102.271 125.236C102.787 124.936 103.189 124.516 103.477 123.976C103.765 123.424 103.909 122.788 103.909 122.068C103.909 121.348 103.765 120.712 103.477 120.16C103.189 119.608 102.787 119.188 102.271 118.9C101.767 118.6 101.191 118.45 100.543 118.45ZM112.204 116.992C113.164 116.992 113.974 117.232 114.634 117.712C115.306 118.192 115.774 118.834 116.038 119.638V117.118H117.676V127H116.038V124.48C115.774 125.284 115.306 125.926 114.634 126.406C113.974 126.886 113.164 127.126 112.204 127.126C111.328 127.126 110.548 126.922 109.864 126.514C109.18 126.106 108.64 125.524 108.244 124.768C107.86 124 107.668 123.1 107.668 122.068C107.668 121.036 107.86 120.136 108.244 119.368C108.64 118.6 109.18 118.012 109.864 117.604C110.548 117.196 111.328 116.992 112.204 116.992ZM112.672 118.45C111.664 118.45 110.854 118.774 110.242 119.422C109.642 120.058 109.342 120.94 109.342 122.068C109.342 123.196 109.642 124.084 110.242 124.732C110.854 125.368 111.664 125.686 112.672 125.686C113.32 125.686 113.896 125.536 114.4 125.236C114.916 124.936 115.318 124.516 115.606 123.976C115.894 123.424 116.038 122.788 116.038 122.068C116.038 121.348 115.894 120.712 115.606 120.16C115.318 119.608 114.916 119.188 114.4 118.9C113.896 118.6 113.32 118.45 112.672 118.45Z" fill="#A0A0A0"/>
<path d="M68.4014 64.8749L60.9163 45.9048L49.9425 63.1952H43.0625L58.3886 38.4465L56.668 33.5553H50.7003V27.7271H60.9157L72.6491 57.564L77.8077 55.8835L79.5268 61.6634L68.4014 64.8749Z" fill="#6A6A6A"/>
<path d="M90.4564 47.3234C90.4564 63.9149 77.0088 77.361 60.4188 77.361C43.8289 77.361 30.3809 63.9151 30.3809 47.3234C30.3809 30.7338 43.8285 17.286 60.4188 17.286C77.0086 17.286 90.4564 30.7338 90.4564 47.3234Z" stroke="#6A6A6A" stroke-width="6.5917"/>
</svg>

<svg width="119" height="137" viewBox="0 0 119 137" fill="none" xmlns="http://www.w3.org/2000/svg"><path d="M8.748 124.066h-5.58L2.106 127H.342l4.698-12.456h1.854L11.574 127H9.81l-1.062-2.934Zm-.468-1.278-2.322-6.408-2.322 6.408H8.28Zm20.558-8.478L25.616 127h-1.998l-2.934-10.368L17.75 127h-1.998l-3.24-12.69h1.818l2.43 10.782 3.006-10.782h1.818l3.006 10.746 2.448-10.746h1.8Zm9.947 9.396c0 .6-.144 1.158-.432 1.674-.288.516-.726.936-1.314 1.26-.588.324-1.314.486-2.178.486-.84 0-1.59-.15-2.25-.45a4.187 4.187 0 0 1-1.566-1.26 3.661 3.661 0 0 1-.666-1.836h1.746a2.6 2.6 0 0 0 .36 1.062c.216.336.516.618.9.846.396.216.87.324 1.422.324.72 0 1.272-.192 1.656-.576.384-.384.576-.876.576-1.476 0-.516-.138-.936-.414-1.26a2.695 2.695 0 0 0-.99-.756c-.396-.192-.936-.396-1.62-.612a18.488 18.488 0 0 1-1.944-.738 3.483 3.483 0 0 1-1.242-1.062c-.336-.468-.504-1.086-.504-1.854 0-.66.156-1.242.468-1.746.324-.504.78-.894 1.368-1.17.6-.276 1.302-.414 2.106-.414 1.248 0 2.238.306 2.97.918a3.445 3.445 0 0 1 1.278 2.304h-1.764c-.096-.504-.354-.948-.774-1.332-.42-.384-.99-.576-1.71-.576-.66 0-1.188.174-1.584.522-.396.336-.594.816-.594 1.44 0 .492.126.894.378 1.206.264.3.588.54.972.72.384.168.912.36 1.584.576.816.264 1.47.516 1.962.756.504.24.93.606 1.278 1.098.348.48.522 1.122.522 1.926Zm8.288 2.016h4.5V127h-6.138v-12.69h1.638v11.412Zm10.217-8.73c.96 0 1.77.24 2.43.72a3.735 3.735 0 0 1 1.404 1.926v-2.52h1.638V127h-1.638v-2.52a3.735 3.735 0 0 1-1.404 1.926c-.66.48-1.47.72-2.43.72-.876 0-1.656-.204-2.34-.612-.684-.408-1.224-.99-1.62-1.746-.384-.768-.576-1.668-.576-2.7 0-1.032.192-1.932.576-2.7.396-.768.936-1.356 1.62-1.764.684-.408 1.464-.612 2.34-.612Zm.468 1.458c-1.008 0-1.818.324-2.43.972-.6.636-.9 1.518-.9 2.646s.3 2.016.9 2.664c.612.636 1.422.954 2.43.954.648 0 1.224-.15 1.728-.45.516-.3.918-.72 1.206-1.26.288-.552.432-1.188.432-1.908s-.144-1.356-.432-1.908a2.985 2.985 0 0 0-1.206-1.26c-.504-.3-1.08-.45-1.728-.45Zm19.76-1.494c1.153 0 2.077.372 2.773 1.116.708.732 1.062 1.794 1.062 3.186V127h-1.638v-5.598c0-.972-.24-1.716-.72-2.232-.468-.516-1.116-.774-1.944-.774-.864 0-1.56.288-2.088.864-.516.564-.774 1.398-.774 2.502V127H72.55v-5.598c0-.972-.24-1.716-.72-2.232-.48-.516-1.128-.774-1.944-.774-.876 0-1.578.288-2.106.864-.516.564-.774 1.398-.774 2.502V127h-1.638v-9.882h1.638v2.25c.24-.78.666-1.374 1.278-1.782.624-.42 1.338-.63 2.142-.63.84 0 1.566.216 2.178.648.624.42 1.068 1.044 1.332 1.872.276-.804.738-1.422 1.386-1.854a3.794 3.794 0 0 1 2.196-.666Zm11.832.036c.876 0 1.656.204 2.34.612.684.408 1.218.996 1.602 1.764.396.768.594 1.668.594 2.7 0 1.032-.198 1.932-.594 2.7-.384.756-.918 1.338-1.602 1.746-.684.408-1.464.612-2.34.612-.96 0-1.776-.24-2.448-.72a3.769 3.769 0 0 1-1.368-1.926V127h-1.638v-13.32h1.638v5.958a3.675 3.675 0 0 1 1.368-1.908c.672-.492 1.488-.738 2.448-.738Zm-.468 1.458c-.636 0-1.212.15-1.728.45a2.985 2.985 0 0 0-1.206 1.26c-.288.552-.432 1.188-.432 1.908s.144 1.356.432 1.908c.288.54.69.96 1.206 1.26.516.3 1.092.45 1.728.45 1.02 0 1.83-.318 2.43-.954.612-.648.918-1.536.918-2.664 0-1.128-.306-2.01-.918-2.646-.6-.648-1.41-.972-2.43-.972Zm11.193-1.458c.96 0 1.77.24 2.43.72a3.735 3.735 0 0 1 1.404 1.926v-5.958h1.638V127h-1.638v-2.52a3.735 3.735 0 0 1-1.404 1.926c-.66.48-1.47.72-2.43.72-.876 0-1.656-.204-2.34-.612-.684-.408-1.224-.99-1.62-1.746-.384-.768-.576-1.668-.576-2.7 0-1.032.192-1.932.576-2.7.396-.768.936-1.356 1.62-1.764.684-.408 1.464-.612 2.34-.612Zm.468 1.458c-1.008 0-1.818.324-2.43.972-.6.636-.9 1.518-.9 2.646s.3 2.016.9 2.664c.612.636 1.422.954 2.43.954.648 0 1.224-.15 1.728-.45.516-.3.918-.72 1.206-1.26.288-.552.432-1.188.432-1.908s-.144-1.356-.432-1.908a2.985 2.985 0 0 0-1.206-1.26c-.504-.3-1.08-.45-1.728-.45Zm11.661-1.458c.96 0 1.77.24 2.43.72a3.735 3.735 0 0 1 1.404 1.926v-2.52h1.638V127h-1.638v-2.52a3.735 3.735 0 0 1-1.404 1.926c-.66.48-1.47.72-2.43.72-.876 0-1.656-.204-2.34-.612-.684-.408-1.224-.99-1.62-1.746-.384-.768-.576-1.668-.576-2.7 0-1.032.192-1.932.576-2.7.396-.768.936-1.356 1.62-1.764.684-.408 1.464-.612 2.34-.612Zm.468 1.458c-1.008 0-1.818.324-2.43.972-.6.636-.9 1.518-.9 2.646s.3 2.016.9 2.664c.612.636 1.422.954 2.43.954.648 0 1.224-.15 1.728-.45.516-.3.918-.72 1.206-1.26.288-.552.432-1.188.432-1.908s-.144-1.356-.432-1.908a2.985 2.985 0 0 0-1.206-1.26c-.504-.3-1.08-.45-1.728-.45Z" fill="#A0A0A0"/><path d="m68.401 64.875-7.485-18.97-10.973 17.29h-6.88l15.326-24.748-1.721-4.892H50.7v-5.828h10.216l11.733 29.837 5.159-1.68 1.719 5.78-11.126 3.21Z" fill="#6A6A6A"/><path d="M90.456 47.323c0 16.592-13.447 30.038-30.037 30.038S30.38 63.915 30.38 47.323c0-16.59 13.447-30.037 30.038-30.037 16.59 0 30.037 13.448 30.037 30.037Z" stroke="#6A6A6A" stroke-width="6.592"/></svg>
